X:1
T:Domine Probasti, LM
T:Domine Probasti, LM
T:Alfred Pettett, 1826
T:Public Domain Courtesy of the Cyber Hymnal™
C:Alfred Pettett, 1826
Z:Public Domain
Z:Courtesy of the Cyber Hymnal™
%%score ( 1 2 ) ( 3 4 )
L:1/8
Q:1/4=115
M:none
K:G
V:1 treble 
V:2 treble 
V:3 bass 
V:4 bass 
V:1
 [DB]2 | (G3 B) (dc) | ([DB]2 [FA]2) G2 | (Aced) (cB) | (B2 A2) [DB]2 | (E2 [CF]2) [DG]2 | %6
 A4 [EG]2 | [DF]2 E4 x2 | D4 [DF]2 | A2 ([^DB][FA]) ([EG][DF]) | [EG]4 [FB]2 | e4 ([B,d][A,c]) | %12
 (B2 A2) [B,G]2 | (FAce) (dc) | [G,B]4 [EA]2 | [DG]4 [CF]2 | [B,G]4 |] %17
V:2
 x2 | D4 A,2 | x4 G2 | E4 E2 | D4 x2 | E2 x4 | (^C2 A,2) x2 | x2 D2 ^C2 x2 | D4 x2 | F E x4 | x6 | %11
 (E3 C) x2 | D4 x2 | C4 A,2 | x6 | x6 | x4 |] %17
V:3
 G,2 | [G,B,]4 [F,A,]2 | (B,2 C2) [B,,D]2 | (E2 CB,) (A,G,) | (G,2 F,2) [G,,G,]2 | %5
 G,2 [A,,A,]2 [G,,B,]2 | [G,E]2 [F,D]2 [G,B,]2 | A,4 z2 G,2 | [D,F,]4 [D,A,]2 | F,4 [B,,B,]2 | %10
 [E,B,]4 [D,B,]2 | (B,^G, A,2) [C,E,]2 | (G,2 F,2) [D,G,]2 | [D,A,]4 [F,D]2 | (G,B,D=F) (EC) | %15
 [D,B,]4 [D,A,]2 | [G,,G,]4 |] %17
V:4
 G,2 | x6 | G,4 x2 | C,4 C,2 | D,4 x2 | C,B,, x4 | x6 | A,2 A,,4 x2 | x6 | (C,2 B,,2) x2 | x6 | %11
 C,4 x2 | D,4 x2 | x6 | G,4 C,2 | x6 | x4 |] %17

